vms/client/nx_vms_client_core/external_resources/skin/24x24/Outline/show_on_layout.svg

<svg width="24" height="24" viewBox="0 0 24 24" fill="none" xmlns="http://www.w3.org/2000/svg">
<path d="M14.2393 13.0674C14.3989 12.9697 14.555 12.978 14.707 13.0918L19.7949 16.585C19.9316 16.6826 20 16.821 20 17C20 17.179 19.9316 17.3174 19.7949 17.415L14.707 20.9082C14.555 21.022 14.3989 21.0303 14.2393 20.9326C14.0797 20.835 14.0001 20.6883 14 20.4932V13.5068C14.0001 13.3117 14.0797 13.165 14.2393 13.0674ZM19.2002 4C20.1941 4.0001 20.9998 4.79577 21 5.77734V8C21 8.98177 20.1942 9.77724 19.2002 9.77734V12.8906C19.2002 13.2264 19.1745 13.5565 19.1289 13.8799L17.4004 12.7217V9.77734H6.60156L6.60352 12.8945C6.60578 15.8368 9.02117 18.2207 12 18.2217V19.999C8.0277 19.998 4.80691 16.8199 4.80371 12.8965L4.80176 9.77734H4.7998C3.80578 9.77724 3 8.98177 3 8V5.77734C3.00024 4.79577 3.80593 4.0001 4.7998 4H19.2002ZM4.7998 8H19.2002V5.77734H4.7998V8Z" fill="#B0B9C4" class="Primary"/>
</svg>

<svg xmlns="http://www.w3.org/2000/svg" width="24" height="24" fill="none" viewBox="0 0 24 24">
  <g class="24x24/Outline/show_on_layout">
    <path fill="#B0B9C4" d="M14.24 13.067a.385.385 0 0 1 .467.025l5.088 3.493A.48.48 0 0 1 20 17a.48.48 0 0 1-.205.415l-5.088 3.493a.385.385 0 0 1-.468.025.482.482 0 0 1-.239-.44v-6.986c0-.195.08-.342.24-.44ZM19.2 4c.994 0 1.8.796 1.8 1.777V8c0 .982-.806 1.777-1.8 1.777v3.114c0 .335-.026.665-.071.989L17.4 12.722V9.777H6.602l.002 3.118C6.606 15.837 9.02 18.22 12 18.221v1.777c-3.972-.001-7.193-3.18-7.196-7.102l-.002-3.12H4.8A1.787 1.787 0 0 1 3 8V5.777C3 4.796 3.806 4 4.8 4h14.4ZM4.8 8h14.4V5.777H4.8V8Z" class="Primary"/>
  </g>
</svg>
